X:155
T:Cumberland Reel. RHu.151
S:R.Hughes MS,1823,Whitchurch,Shrops.
A:Whitchurch, Shropshire
Z:Tony Weatherall 2006
M:C
L:1/8
Q:1/2=110
R:Reel
K:C
G|c2c’a gedc|BGdG eGdG|c2c’a gedc|Gccd ecc:|!
|:d|cAGF EFGE|FDD^c dAAB|cAGF EFGE|Cccd ecc:|

